assets/images/logo-bcg.svg

<svg fill="none" height="206" viewBox="0 0 500 206" width="500" xmlns="http://www.w3.org/2000/svg"><path d="m41.5655 164.529v-43.641h57.4966c6.2349 0 11.7769 2.075 15.9349 6.237 4.154 4.154 6.925 9.696 6.925 15.237 0 6.236-2.771 11.777-6.925 15.932-4.158 4.156-9.7 6.235-15.9349 6.235zm0-78.971v-42.2578h47.8006c6.2326 0 11.7739 2.7708 15.2379 6.2351 4.158 3.4643 6.234 9.0062 6.234 15.241 0 5.5416-2.076 11.0835-6.234 14.5478-3.464 4.154-9.0062 6.2339-15.2379 6.2339zm455.1265 18.704c0-2.771-.692-5.5419-.692-8.3129s-.687-5.542-.687-8.3129h-78.283l-11.776 18.0118-11.777 18.702h60.264c-3.46 12.471-10.383 22.861-20.087 30.483-9.002 6.928-20.785 11.777-34.637 11.777-16.623 0-31.868-7.622-42.951-18.706-11.083-11.083-17.318-27.016-17.318-44.337 0-16.6232 6.235-31.8657 17.318-42.9478 11.083-11.0835 27.02-18.7034 43.646-18.7034 7.621 0 14.544 1.385 20.779 3.4641 6.235 2.0777 12.47 5.542 17.319 9.0027l10.395-16.6235 10.389-16.6253c-7.621-5.5418-16.624-9.6991-26.32-13.16331-10.396-2.77098-20.786-4.15513-31.87-4.15513-15.238 0-29.095 2.7708-40.872 7.61854-12.471 4.8515-22.861 12.47-31.869 21.476-21.474 20.783-27.014 42.2571-31.17 62.3441-4.855 20.087-6.929 38.105-21.473 52.65-6.235 5.542-13.164 10.389-20.093 13.157-7.619 3.467-15.24 4.855-23.553 4.855-18.009 0-33.251-6.929-45.028-18.012-11.083-11.777-18.012-27.016-18.012-44.337 0-15.9313 6.928-31.8666 18.012-42.9482 11.777-11.0835 27.019-18.7036 45.028-18.7036 6.927 0 13.857 1.385 20.092 3.4643 6.235 2.0776 11.772 4.8482 17.319 9.0026l10.389-16.6237 10.39-17.3185c-7.622-5.5418-16.625-9.697-26.326-12.47008-10.386-2.77098-20.78-4.15512-31.864-4.15512-17.319 0-33.944 4.15512-47.799 11.0836-13.852 7.6184-26.324 18.0109-35.33 30.4812-3.464-11.0849-11.083-20.0918-20.782-27.0179-10.388-6.9284-22.859-10.3916-37.4063-10.3916h-90.0567v192.583h99.0621c12.4699 0 24.2479-2.768 33.2539-8.315 9.005-4.849 16.623-12.47 21.472-20.78 9.699 9.696 20.783 18.012 33.945 24.242 12.469 5.547 27.017 9.008 42.257 9.008 18.011 0 33.948-4.154 48.492-11.777 14.545-7.615 26.327-18.012 35.331-31.869 9.002 13.17 20.785 24.254 35.33 31.869 14.545 7.623 31.176 11.777 49.182 11.777 27.714 0 51.956-11.084 69.965-29.789 17.322-18.006 28.402-42.947 28.402-70.657z" fill="#000"/></svg>

<svg width="500" height="206" viewBox="0 0 500 206" fill="none" xmlns="http://www.w3.org/2000/svg">
<path d="M41.5655 164.529V120.888H99.0621C105.297 120.888 110.839 122.963 114.997 127.125C119.151 131.279 121.922 136.821 121.922 142.362C121.922 148.598 119.151 154.139 114.997 158.294C110.839 162.45 105.297 164.529 99.0621 164.529H41.5655ZM41.5655 85.558V43.3002H89.3661C95.5987 43.3002 101.14 46.071 104.604 49.5353C108.762 52.9996 110.838 58.5415 110.838 64.7763C110.838 70.3179 108.762 75.8598 104.604 79.3241C101.14 83.4781 95.5978 85.558 89.3661 85.558H41.5655ZM496.692 104.262C496.692 101.491 496 98.7201 496 95.9491C496 93.1781 495.313 90.4071 495.313 87.6362H417.03L405.254 105.648L393.477 124.35H453.741C450.281 136.821 443.358 147.211 433.654 154.833C424.652 161.761 412.869 166.61 399.017 166.61C382.394 166.61 367.149 158.988 356.066 147.904C344.983 136.821 338.748 120.888 338.748 103.567C338.748 86.9438 344.983 71.7013 356.066 60.6192C367.149 49.5357 383.086 41.9158 399.712 41.9158C407.333 41.9158 414.256 43.3008 420.491 45.3799C426.726 47.4576 432.961 50.9219 437.81 54.3826L448.205 37.7591L458.594 21.1338C450.973 15.592 441.97 11.4347 432.274 7.97049C421.878 5.19951 411.488 3.81536 400.404 3.81536C385.166 3.81536 371.309 6.58616 359.532 11.4339C347.061 16.2854 336.671 23.9039 327.663 32.9099C306.189 53.6929 300.649 75.167 296.493 95.254C291.638 115.341 289.564 133.359 275.02 147.904C268.785 153.446 261.856 158.293 254.927 161.061C247.308 164.528 239.687 165.916 231.374 165.916C213.365 165.916 198.123 158.987 186.346 147.904C175.263 136.127 168.334 120.888 168.334 103.567C168.334 87.6357 175.262 71.7004 186.346 60.6188C198.123 49.5353 213.365 41.9152 231.374 41.9152C238.301 41.9152 245.231 43.3002 251.466 45.3795C257.701 47.4571 263.238 50.2277 268.785 54.3821L279.174 37.7584L289.564 20.4399C281.942 14.8981 272.939 10.7429 263.238 7.96982C252.852 5.19884 242.458 3.8147 231.374 3.8147C214.055 3.8147 197.43 7.96982 183.575 14.8983C169.723 22.5167 157.251 32.9092 148.245 45.3795C144.781 34.2946 137.162 25.2877 127.463 18.3616C117.075 11.4332 104.604 7.97 90.0567 7.97H0V200.553H99.0621C111.532 200.553 123.31 197.785 132.316 192.238C141.321 187.389 148.939 179.768 153.788 171.458C163.487 181.154 174.571 189.47 187.733 195.7C200.202 201.247 214.75 204.708 229.99 204.708C248.001 204.708 263.938 200.554 278.482 192.931C293.027 185.316 304.809 174.919 313.813 161.062C322.815 174.232 334.598 185.316 349.143 192.931C363.688 200.554 380.319 204.708 398.325 204.708C426.039 204.708 450.281 193.624 468.29 174.919C485.612 156.913 496.692 131.972 496.692 104.262Z" fill="black"/>
</svg>
